svg/24/database.svg

<svg width="24" height="24" viewBox="0 0 24 24" fill="currentColor" xmlns="http://www.w3.org/2000/svg"><path fill-rule="evenodd" clip-rule="evenodd" d="M21 7C21 6.47574 20.7681 5.95552 20.3149 5.46927C19.8626 4.98397 19.1997 4.54301 18.364 4.17157C17.5282 3.80014 16.5361 3.5055 15.4442 3.30448C14.3522 3.10346 13.1819 3 12 3C10.8181 3 9.64778 3.10346 8.55585 3.30448C7.46392 3.5055 6.47177 3.80014 5.63604 4.17157C4.8003 4.54301 4.13737 4.98397 3.68508 5.46927C3.23191 5.95552 3 6.47574 3 7V17C3 18.0573 3.94263 19.0758 5.63604 19.8284C7.32386 20.5786 9.61304 21 12 21C14.387 21 16.6761 20.5786 18.364 19.8284C20.0574 19.0758 21 18.0573 21 17V7ZM12 4.5C10.9034 4.5 9.82423 4.59619 8.82743 4.77969C7.82796 4.96369 6.95286 5.2278 6.24525 5.54229C5.52866 5.86077 5.05552 6.19891 4.78241 6.49195C4.51892 6.77466 4.5 6.94577 4.5 7C4.5 7.05423 4.51892 7.22534 4.78241 7.50805C5.05552 7.80109 5.52866 8.13923 6.24525 8.45771C6.95286 8.7722 7.82795 9.03631 8.82743 9.22031C9.82423 9.40381 10.9034 9.5 12 9.5C13.0966 9.5 14.1758 9.40381 15.1726 9.22031C16.172 9.03631 17.0471 8.7722 17.7548 8.45771C18.4713 8.13923 18.9445 7.80109 19.2176 7.50805C19.4811 7.22534 19.5 7.05423 19.5 7C19.5 6.94577 19.4811 6.77466 19.2176 6.49195C18.9445 6.19891 18.4713 5.86077 17.7548 5.54229C17.0471 5.2278 16.172 4.96369 15.1726 4.77969C14.1758 4.59619 13.0966 4.5 12 4.5ZM19.5 9.21108C19.1693 9.43264 18.789 9.63952 18.364 9.82843C17.5282 10.1999 16.5361 10.4945 15.4442 10.6955C14.3522 10.8965 13.1819 11 12 11C10.8181 11 9.64778 10.8965 8.55585 10.6955C7.46392 10.4945 6.47177 10.1999 5.63604 9.82843C5.211 9.63952 4.83067 9.43264 4.5 9.21108V12C4.5 12.1142 4.67692 12.7607 6.24525 13.4577C7.69397 14.1016 9.76411 14.5 12 14.5C14.2359 14.5 16.306 14.1016 17.7548 13.4577C19.3231 12.7607 19.5 12.1142 19.5 12V9.21108ZM19.5 14.2111C19.1712 14.4314 18.7915 14.6384 18.364 14.8284C16.6761 15.5786 14.387 16 12 16C9.61304 16 7.32386 15.5786 5.63604 14.8284C5.20847 14.6384 4.82876 14.4314 4.5 14.2111V17C4.5 17.1142 4.67692 17.7607 6.24525 18.4577C7.69397 19.1016 9.76411 19.5 12 19.5C14.2359 19.5 16.306 19.1016 17.7548 18.4577C19.3231 17.7607 19.5 17.1142 19.5 17V14.2111Z"/></svg>

<svg xmlns="http://www.w3.org/2000/svg" width="24" height="24" fill="currentColor" viewBox="0 0 24 24">
  <path fill-rule="evenodd" d="M21 7c0-.524-.232-1.044-.685-1.53-.452-.486-1.115-.927-1.951-1.298-.836-.372-1.828-.666-2.92-.868A19.18 19.18 0 0 0 12 3c-1.182 0-2.352.103-3.444.304-1.092.202-2.084.496-2.92.868-.836.371-1.499.812-1.95 1.297C3.231 5.956 3 6.476 3 7v10c0 1.057.943 2.076 2.636 2.828C7.324 20.578 9.613 21 12 21s4.676-.421 6.364-1.172C20.057 19.076 21 18.058 21 17V7Zm-9-2.5a17.68 17.68 0 0 0-3.173.28c-.999.184-1.874.448-2.582.762-.716.319-1.19.657-1.463.95-.263.283-.282.454-.282.508 0 .054.019.225.282.508.274.293.747.631 1.463.95.708.314 1.583.578 2.582.762.997.184 2.076.28 3.173.28a17.68 17.68 0 0 0 3.173-.28c.999-.184 1.874-.448 2.582-.762.716-.319 1.19-.657 1.463-.95.263-.283.282-.454.282-.508 0-.054-.019-.225-.282-.508-.273-.293-.747-.631-1.463-.95-.708-.314-1.583-.578-2.582-.762A17.68 17.68 0 0 0 12 4.5Zm7.5 4.711c-.33.222-.711.429-1.136.617-.836.372-1.828.667-2.92.867A19.18 19.18 0 0 1 12 11a19.18 19.18 0 0 1-3.444-.305c-1.092-.2-2.084-.495-2.92-.867A7.558 7.558 0 0 1 4.5 9.211V12c0 .114.177.76 1.745 1.458C7.694 14.102 9.765 14.5 12 14.5c2.236 0 4.306-.398 5.755-1.042C19.323 12.76 19.5 12.114 19.5 12V9.211Zm0 5c-.329.22-.709.427-1.136.617C16.676 15.578 14.387 16 12 16s-4.676-.421-6.364-1.172a7.55 7.55 0 0 1-1.136-.617V17c0 .114.177.76 1.745 1.458C7.694 19.102 9.765 19.5 12 19.5c2.236 0 4.306-.398 5.755-1.042C19.323 17.76 19.5 17.114 19.5 17v-2.789Z" clip-rule="evenodd"/>
</svg>
